dist/icons/payment-methods/visa.svg

<svg width="38" height="24" xmlns="http://www.w3.org/2000/svg"><g fill-rule="nonzero" fill="none"><path d="M35 0H3C1.3 0 0 1.3 0 3v18c0 1.7 1.4 3 3 3h32c1.7 0 3-1.3 3-3V3c0-1.7-1.4-3-3-3z" fill="#000" opacity=".07"/><path d="M35 1c1.1 0 2 .9 2 2v18c0 1.1-.9 2-2 2H3c-1.1 0-2-.9-2-2V3c0-1.1.9-2 2-2h32" fill="#FFF"/><path d="M28.3 10.1H28c-.4 1-.7 1.5-1 3h1.9c-.3-1.5-.3-2.2-.6-3zm2.9 5.9h-1.7c-.1 0-.1 0-.2-.1l-.2-.9-.1-.2h-2.4c-.1 0-.2 0-.2.2l-.3.9c0 .1-.1.1-.1.1h-2.1l.2-.5L27 8.7c0-.5.3-.7.8-.7h1.5c.1 0 .2 0 .2.2l1.4 6.5c.1.4.2.7.2 1.1.1.1.1.1.1.2zm-13.4-.3l.4-1.8c.1 0 .2.1.2.1.7.3 1.4.5 2.1.4.2 0 .5-.1.7-.2.5-.2.5-.7.1-1.1-.2-.2-.5-.3-.8-.5-.4-.2-.8-.4-1.1-.7-1.2-1-.8-2.4-.1-3.1.6-.4.9-.8 1.7-.8 1.2 0 2.5 0 3.1.2h.1c-.1.6-.2 1.1-.4 1.7-.5-.2-1-.4-1.5-.4-.3 0-.6 0-.9.1-.2 0-.3.1-.4.2-.2.2-.2.5 0 .7l.5.4c.4.2.8.4 1.1.6.5.3 1 .8 1.1 1.4.2.9-.1 1.7-.9 2.3-.5.4-.7.6-1.4.6-1.4 0-2.5.1-3.4-.2-.1.2-.1.2-.2.1zm-3.5.3c.1-.7.1-.7.2-1 .5-2.2 1-4.5 1.4-6.7.1-.2.1-.3.3-.3H18c-.2 1.2-.4 2.1-.7 3.2-.3 1.5-.6 3-1 4.5 0 .2-.1.2-.3.2M5 8.2c0-.1.2-.2.3-.2h3.4c.5 0 .9.3 1 .8l.9 4.4c0 .1 0 .1.1.2 0-.1.1-.1.1-.1l2.1-5.1c-.1-.1 0-.2.1-.2h2.1c0 .1 0 .1-.1.2l-3.1 7.3c-.1.2-.1.3-.2.4-.1.1-.3 0-.5 0H9.7c-.1 0-.2 0-.2-.2L7.9 9.5c-.2-.2-.5-.5-.9-.6-.6-.3-1.7-.5-1.9-.5L5 8.2z" fill="#142688"/></g></svg>

<?xml version="1.0" encoding="UTF-8"?>
<svg width="38px" height="24px" viewBox="0 0 38 24" version="1.1" xmlns="http://www.w3.org/2000/svg" xmlns:xlink="http://www.w3.org/1999/xlink">
    <title>Group 6</title>
    <g id="Symbols" stroke="none" stroke-width="1" fill="none" fill-rule="evenodd">
        <g id="Footer/Links/Desktop" transform="translate(-1122.000000, -408.000000)" fill-rule="nonzero">
            <g id="Group-6" transform="translate(1122.000000, 408.000000)">
                <path d="M35,0 L3,0 C1.3,0 0,1.3 0,3 L0,21 C0,22.7 1.4,24 3,24 L35,24 C36.7,24 38,22.7 38,21 L38,3 C38,1.3 36.6,0 35,0 Z" id="Path" fill="#000000" opacity="0.07"></path>
                <path d="M35,1 C36.1,1 37,1.9 37,3 L37,21 C37,22.1 36.1,23 35,23 L3,23 C1.9,23 1,22.1 1,21 L1,3 C1,1.9 1.9,1 3,1 L35,1" id="Path" fill="#FFFFFF"></path>
                <path d="M28.3,10.1 L28,10.1 C27.6,11.1 27.3,11.6 27,13.1 L28.9,13.1 C28.6,11.6 28.6,10.9 28.3,10.1 L28.3,10.1 Z M31.2,16 L29.5,16 C29.4,16 29.4,16 29.3,15.9 L29.1,15 L29,14.8 L26.6,14.8 C26.5,14.8 26.4,14.8 26.4,15 L26.1,15.9 C26.1,16 26,16 26,16 L23.9,16 L24.1,15.5 L27,8.7 C27,8.2 27.3,8 27.8,8 L29.3,8 C29.4,8 29.5,8 29.5,8.2 L30.9,14.7 C31,15.1 31.1,15.4 31.1,15.8 C31.2,15.9 31.2,15.9 31.2,16 Z M17.8,15.7 L18.2,13.9 C18.3,13.9 18.4,14 18.4,14 C19.1,14.3 19.8,14.5 20.5,14.4 C20.7,14.4 21,14.3 21.2,14.2 C21.7,14 21.7,13.5 21.3,13.1 C21.1,12.9 20.8,12.8 20.5,12.6 C20.1,12.4 19.7,12.2 19.4,11.9 C18.2,10.9 18.6,9.5 19.3,8.8 C19.9,8.4 20.2,8 21,8 C22.2,8 23.5,8 24.1,8.2 L24.2,8.2 C24.1,8.8 24,9.3 23.8,9.9 C23.3,9.7 22.8,9.5 22.3,9.5 C22,9.5 21.7,9.5 21.4,9.6 C21.2,9.6 21.1,9.7 21,9.8 C20.8,10 20.8,10.3 21,10.5 L21.5,10.9 C21.9,11.1 22.3,11.3 22.6,11.5 C23.1,11.8 23.6,12.3 23.7,12.9 C23.9,13.8 23.6,14.6 22.8,15.2 C22.3,15.6 22.1,15.8 21.4,15.8 C20,15.8 18.9,15.9 18,15.6 C17.9,15.8 17.9,15.8 17.8,15.7 L17.8,15.7 Z M14.3,16 C14.4,15.3 14.4,15.3 14.5,15 C15,12.8 15.5,10.5 15.9,8.3 C16,8.1 16,8 16.2,8 L18,8 C17.8,9.2 17.6,10.1 17.3,11.2 C17,12.7 16.7,14.2 16.3,15.7 C16.3,15.9 16.2,15.9 16,15.9 M5,8.2 C5,8.1 5.2,8 5.3,8 L8.7,8 C9.2,8 9.6,8.3 9.7,8.8 L10.6,13.2 C10.6,13.3 10.6,13.3 10.7,13.4 C10.7,13.3 10.8,13.3 10.8,13.3 L12.9,8.2 C12.8,8.1 12.9,8 13,8 L15.1,8 C15.1,8.1 15.1,8.1 15,8.2 L11.9,15.5 C11.8,15.7 11.8,15.8 11.7,15.9 C11.6,16 11.4,15.9 11.2,15.9 L9.7,15.9 C9.6,15.9 9.5,15.9 9.5,15.7 L7.9,9.5 C7.7,9.3 7.4,9 7,8.9 C6.4,8.6 5.3,8.4 5.1,8.4 L5,8.2 Z" id="Shape" fill="#142688"></path>
            </g>
        </g>
    </g>
</svg>
